docs/.gitbook/assets/icon-code-block-16@light.svg

<svg width="32" height="32" viewBox="0 0 16 16" fill="none" xmlns="http://www.w3.org/2000/svg">
<rect x="0" y="0" width="16" height="16" fill="#fff"/>
<path fill-rule="evenodd" clip-rule="evenodd" d="M11 1.75C11 1.33579 11.3358 1 11.75 1H12.25C13.7688 1 15 2.23122 15 3.75V12.25C15 13.7688 13.7688 15 12.25 15H3.75C2.23122 15 1 13.7688 1 12.25V8.75C1 8.33579 1.33579 8 1.75 8C2.16421 8 2.5 8.33579 2.5 8.75V12.25C2.5 12.9404 3.05964 13.5 3.75 13.5H12.25C12.9404 13.5 13.5 12.9404 13.5 12.25V3.75C13.5 3.05964 12.9404 2.5 12.25 2.5H11.75C11.3358 2.5 11 2.16421 11 1.75ZM3.82617 2.26986C4.09134 2.58807 4.04835 3.06099 3.73014 3.32617L2.92154 4L3.73014 4.67383C4.04835 4.93901 4.09134 5.41193 3.82617 5.73014C3.56099 6.04835 3.08807 6.09134 2.76986 5.82617L1.26986 4.57617C1.09887 4.43367 1 4.22258 1 4C1 3.77742 1.09887 3.56633 1.26986 3.42383L2.76986 2.17383C3.08807 1.90866 3.56099 1.95165 3.82617 2.26986ZM6.17383 2.26986C6.43901 1.95165 6.91193 1.90866 7.23014 2.17383L8.73014 3.42383C8.90113 3.56633 9 3.77742 9 4C9 4.22258 8.90113 4.43367 8.73014 4.57617L7.23014 5.82617C6.91193 6.09134 6.43901 6.04835 6.17383 5.73014C5.90866 5.41193 5.95165 4.93901 6.26986 4.67383L7.07846 4L6.26986 3.32617C5.95165 3.06099 5.90866 2.58807 6.17383 2.26986Z" fill="#000"/>
</svg>

<svg xmlns="http://www.w3.org/2000/svg" width="32" height="32" fill="none" viewBox="0 0 16 16"><path fill="#fff" d="M0 0h16v16H0z"/><path fill="#000" fill-rule="evenodd" d="M11 1.75a.75.75 0 0 1 .75-.75h.5A2.75 2.75 0 0 1 15 3.75v8.5A2.75 2.75 0 0 1 12.25 15h-8.5A2.75 2.75 0 0 1 1 12.25v-3.5a.75.75 0 0 1 1.5 0v3.5c0 .69.56 1.25 1.25 1.25h8.5c.69 0 1.25-.56 1.25-1.25v-8.5c0-.69-.56-1.25-1.25-1.25h-.5a.75.75 0 0 1-.75-.75m-7.174.52a.75.75 0 0 1-.096 1.056L2.922 4l.808.674a.75.75 0 0 1-.96 1.152l-1.5-1.25a.75.75 0 0 1 0-1.152l1.5-1.25a.75.75 0 0 1 1.056.096m2.348 0a.75.75 0 0 1 1.056-.096l1.5 1.25a.75.75 0 0 1 0 1.152l-1.5 1.25a.75.75 0 0 1-.96-1.152L7.078 4l-.808-.674a.75.75 0 0 1-.096-1.056" clip-rule="evenodd"/></svg>
